X:1
T:6/8 time practice
M:6/8
K:Bb
L:1/4
Q:1/2=100
  B/2B/2B/2 c/2c/2c/2 | d/2d/2d/2 e/2e/2e/2 | f/2f/2f/2  g/2g/2g/2  | a/2a/2a/2 b3/2 |]
  B3/2 c3/2 | d3/2e3/2 | f3/2g3/2 | a3/2 | b3/2 |]
  BB/2 cc/2 | dd/2ee/2 | ff/2gg/2 | aa/2  b3/2 |]
  B/2z/2B/2 c/2z/2c/2 | d/2z/2d/2 e/2z/2e/2 | f/2z/2f/2  g/2z/2g/2  | a/2z/2a/2 b3/2 |]
